X:1
T:The Ghostly Crew
M:4/4
L:1/4
K:G
 G3/2 E/2| D3/2 E/2G/2 G3/2| G/2 B/2- B2 G/2G/2| A/2 A3/2 G3/2 A/2|\
 G3 G| G B d/2 d3/2| e/2 d3/2- d B| A3/2 ^G/2 A3/2 B/2| A3 B| c/2 d3/2 e d|\
 B/2 d3/2- d B| A G G3/2 B/2| d2 z D| D E G/2 G3/2| G/2 B/2- B2 G/2G/2|\
 A3/2 B/2 G F| G2||
